X: 32485
T: Plains Of Kildare
R: jig
M: 6/8
K: Edorian
|[M:14/8] B,CD EFG ABd E2 E3|[M:6/8]AE D2 D2|[M:6/8] G2E FED|
E2E EFG|FE2 E2A|ABA GFE|D2E E2D|
E2E EFG|FE2 E2G|BdB AGF|GFE FED|
E2E EFG|F2E E2A|[M:9/8] BAG ABd e2e|
[M:6/8]fee e2d|BAB d3|D2E F2E|[M:3/28]FED|
[M:3/4]E2E2E2|D2D2D2|B,C D2 C2|A,4 B,2||
[M:3/4]E2 F2 G2|G2 F2 E2|AA A2 A2|D2 E3D|
E2 E2 G2|F2 E2 G2|AB B2 A2|D2 E2 EE|
E2 E2 GG|F3 E A2|B2 A2 B2|d2d2 de|
e2 d2 B2|d2 D2 DE|F3 E D2|
EA e2 A2|[M:3/4]DG d2 G2|[M:4/4](3Bcd cB AF DB,|
[M:3/4]E4 B,2|E2 F2 G2|G2 F2 E2|AA A2 A2|D2 E3D|
E2 E2 G2|F2 E2 G2|AB B2 A2|D2 E2 EE|
E2 E2 GG|F3 E A2|B2 A2 B2|d2d2 de|
[M:7/8]e2 d2 B2d|d2 d2 F2G|cde e2 e2|Bcd d2 d2|
Bcd c2 A2|G2F E2 E2|Bcd c2 A2|G2F E2E2|dcB c2A2|G2F D2 D2|Bcd c2 A2|G2F E2E2|
B,CD E2 G2|ABd e2 e2|gfe f2 d2|fed e2 e2|efd a2 g2|f2d e2 e2|b2b a2 g2|f2d e2 e2|
B,CD E2 G2|ABd e2 e2|gfe f2 d2|fed e2 e2|BAG A2 G2|F2D E2 E2|BAG A2 G2|F2D E2 E2|
efg f2 d2|fed e2 e2|Bcd c2 A2|G2F E2 E2|Bcd c2 A2|G2F E2 E2|dcB c2A2|G2F D2 D2|
[M:1
/8]Bcd c2 A2 G2F|[M:13/28] E2E D2D B,CD C2 A,2|E3 D3 B,CD C2 A,2|E3 D3 B,CD C2 A,2|
[M:3/4]E2E2E2|D2D2D2|B,C D2 C2|A,4 B,2||
E2 F2 G2|G2 F2 E2|AA A2 A2|D2 E3D|
E2 E2 G2|F2 E2 G2|AB B2 A2|D2 E2 EE|
E2 E2 GG|F3 E A2|B2 A2 B2|d2d2 de|
e2 d2 B2|d2 D2 DE|F3 E D2|EA e2 A2|DG d2 G2|
[M:4/4](3Bcd cB AF DB,|[M:3/4]E2E G E2|D2D F D2||
[M:6/8]Bcd c2A|ABc B2G|G2E FED|
E2E EFG|FE2 E2A|ABA GFE|D2E E2D|
E2E EFG|FE2 E2G|BdB AGF|GFE FED|
E2E EFG|F2E E2A|[M:9/8] BAG ABd e2e|
[M:6/8]fee e2d|BAB d3|D2E F2E|[M:3/28]FED|
[M:15/8] B,CD EFG ABd D2 E2zA,|B,CD EFG ABd D2 E2zA,|[M:13/28]B,CD EFG ABd E2 E2|[M:7/8]DCD2 D2D||

